!!!!SEGMENT: pl-kk--i-545--014_anonim--tu-es-petrus.krn
!!!cenid: 18xx:4491
!!!COM: Anonim
!!!COM-rismID: pe30004985
!!!CDT:
!!!CNT:
!!!OTL: Tu es Petrus
!!!PDT:
!!!AGN: Sacred
!!!YEC: Copyright 2022 Narodowy Instytut Fryderyka Chopina (https://polishscores.org)
!!!YEM: License CC-BY-4.0 (https://creativecommons.org/licenses/by/4.0)
!!!SMS-siglum: PL-Kk
!!!SMS-shelfmark: I.545
!!!SMS-variant:
!!!SMS-altvar:
!!!SMS-shelfwork: 014 W
!!!NIFC-rismSourceID: 1001210831
!!!NIFC-rismChildID: 1001210995
!!!NIFC-islandoraID: pl-kk:17058
!!!URL-pdf-islandora: https://repozytorium.nifc.pl/islandora/object/pl-kk%3A17058/datastream/PDF/view
!!!URL-scan: https://polish.musicsources.pl/pl/lokalizacje/galeria/rekopisy/7172/11 @EN{Scan on Polish Music Sources Website} @PL{Skany w portalu Dziedzictwo Muzyki Polskiej w otwartym dostępie}
!!!IIIF:
!!!ONB-nifc: UWAGA: 10r. Czterogłos rozpisany ołówkiem
!!!OMD:
!!!AIN: 2 vox
!!!key: A
**kern	**text	**kern	**text
*part2	*part2	*part1	*part1
*staff2	*staff2	*staff1	*staff1
*I"[Voce]	*	*I"[Voce]	*
*Ivox	*	*Ivox	*
*ICvox	*	*ICvox	*
*clefF4	*	*clefG2	*
*k[f#c#g#]	*	*k[f#c#g#]	*
*A:	*	*A:	*
*M4/4	*	*M4/4	*
*met(c)	*	*met(c)	*
=1	=1	=1	=1
*^	*	*^	*
4r	4ryy	.	4r	4ryy	.
2F#/	2F#\	.	2f#/	2f#\	Tu
4F#/	4F#\	.	4f#/	4f#\	es
*	*	*	*v	*v	*
=2	=2	=2	=2	=2
2F#/	(4BB\	.	1b 1dd	Pe-
.	4D\	.	.	.
4Gn/	4E\	.	.	.
4G#X/	4E#X\)	.	.	.
=3	=3	=3	=3	=3
*	*	*	*^	*
4A#X/	4F#\;	.	4cc#;/	4a#X\	-trus
2An/	2A\	.	2an/	2ryy	Tu
4A/	4A\	.	4a/	4a\	es
*	*	*	*v	*v	*
=4	=4	=4	=4	=4
2.A/	4D\	.	1dd 1ff#	Pe-
.	4E\	.	.	.
.	4F#\	.	.	.
4B/	4G#\	.	.	.
=5	=5	=5	=5	=5
*	*	*	*^	*
!	!	!	!LO:N:vis=[2ee/	!	!
4c#/	4A\	.	[1ee	4dd\	-trus
4r	2A\	Tu	.	(8cc#\L	.
.	.	.	.	8b\J	.
2r	.	.	.	2cc#\)	.
.	4A\	es	.	.	.
=6	=6	=6	=6	=6	=6
4A/	2A\	Pe	4ee/]	4cc#\	.
2B/	.	.	2ee/	2r	Tu
.	4Gn\	.	.	.	.
4B/	4GGn\	.	4ee/	4r	es
!!LO:LB:g=original
=7	=7	=7	=7	=7	=7
2A/	(4FF#\	.	((4ee/	1r	Pe-
.	4F#\	.	4dd/	.	.
2r	4E\	.	4cc#/	.	.
.	4D\	.	4ff#/)	.	.
=8	=8	=8	=8	=8	=8
4A/	4E\	.	4b/	4r	.
4E/	4E\	.	8cc#/L	2g#\	.
.	.	.	8dd/J	.	.
4E/	4C#\	.	4ee/	.	.
4F#/	4F#\	.	4a/	[4a\	.
=9	=9	=9	=9	=9	=9
4F#/	4D\	.	2b/	4a\]	.
4E/	4E\	.	.	4g#\)	.
4C#/	4AA\	.	4a/	2ryy	-trus
4A\)	4ryy	Et	4r	.	.
*	*	*	*v	*v	*
=10	=10	=10	=10	=10
2B/	(4A\	su-	1ryy	.
.	4Gn\)	.	.	.
4A/	4F#\	-per	.	.
4d/	4F#\	hanc	.	.
=11	=11	=11	=11	=11
*	*	*	*^	*
2d/	8E\L	Pe-	2.ryy	2.ryy	.
.	8E#X\	.	.	.	.
.	8F#\	.	.	.	.
.	8G#X\J	.	.	.	.
4c#/	(>8A\L	-tram	.	.	.
.	8B\)	.	.	.	.
4ryy	(8A\	Et	4cc#/	8cc#\L	Et
.	8Gn\J)	.	.	8b\J	.
=12	=12	=12	=12	=12	=12
8F#/L	8F#\L	.	2a#X/ 2cc#	2a#\	su-
8Gn/	8G\	.	.	.	.
8F#/	8F#\	.	.	.	.
8E/J	8E\J	.	.	.	.
4D/	8D\L	.	4b/	4b\	-per
.	8E\	.	.	.	.
4F/	8D\	.	4ee/	4a#\	hanc
.	8C#\J	.	.	.	.
!!LO:LB:g=original
=13	=13	=13	=13	=13	=13
2G#/	8BB\L	.	2ee/	4cc#\	Pe-
.	8AA#X\	.	.	.	.
.	8C#\	.	.	8a#X\L	.
.	8AA#\J	.	.	8b\J	.
4F#/	4BB\	.	4dd/	4b\	-tram
4F#/	8BB\L	.	4dd/	4ccn\	ae-
.	8AAn\J	.	.	.	.
*v	*v	*	*	*	*
=14	=14	=14	=14	=14
4GGn\	.	4dd/	4b\	-di-
8Gn\L	.	4dd/	4b\	-fi-
8F#\J	.	.	.	.
2E\ 2Gn	.	2ggn/	8b\L	-ca-
.	.	.	8a#X\	.
.	.	.	8b\	.
.	.	.	8cc#\J	.
=15	=15	=15	=15	=15
*^	*	*	*	*
4B/	8BB\L	.	4ff#/	4dd\	-bo
.	8AA#X\	.	.	.	.
4B/	8BB\	.	4ff#/	4dd\	ae-
.	8C#\J	.	.	.	.
4B/	8D\L	.	4ff#/	4dd\	-di-
.	8C#\	.	.	.	.
8A/L	8D\	.	4ff#/	4dd\	-fi-
8G#X/J	8E\J	.	.	.	.
=16	=16	=16	=16	=16	=16
8A/L	4F#\	.	2ee/	2dd\	-ca-
8G#/J	.	.	.	.	.
8A/L	8F#\L	.	.	.	.
8A#X/J	8F##X\J	.	.	.	.
4B/	8G#\L	.	4ee/	4dd\	-bo
.	8GG#\J	.	.	.	.
8A#/L	8AA\L	.	4ee/	8cc#\L	Ec-
8Gn/J	8AA#X\J	.	.	8b\J	.
=17	=17	=17	=17	=17	=17
4F#/	8BB\L	.	4cc#/	4b\	-cle-
.	8C#\J	.	.	.	.
8.F#/	8.BB\	.	8.dd/	8.b\	-si-
16F#/	16C#\	.	16dd/	16b\	-am
4Gn/	4E\	.	2cc#/	4b\	tu-
4F#/	4F#\	.	.	8a#X\L	.
.	.	.	.	8g#\J	.
=18	=18	=18	=18	=18	=18
4F#/	4FF#\;	.	4cc#;,/	4a#X\	-am
4F#/	4F#\	.	4f#/	4f#\	Et
4.F#/	4.BB\	.	4.dd#X/	4.b\	por-
8F#/	8D#X\	.	8ff#/	8b\	-te
*v	*v	*	*	*	*
*	*	*v	*v	*
!LO:PB:g=original	!	!	!
==	==	==	==
*-	*-	*-	*-
!!!system-decoration: {(s1,s2)}
!!!RDF**kern: < = below
!!!RDF**kern: > = above
!!!ENC: Filip Voros
!!!END: 2023-10-28
!!!EED: Marta Chmielewska
!!!EEV: 2024-04-23
